X: 130
T: Pomni, Panie, Dawida i jego trudności,
C: Mikołaj Gomółka
%%abc-version 2.0
%%abcx-abcm2ps-target-version 5.9.1 (29 Sep 2008)
%%abc-creator hum2abc beta
%%abcx-conversion-date 2021/10/04 07:59:10
%%abc-edited-by Marta Lawrence
%%abcx-initial-encoding-date 2020-02-22
%%humdrum-veritas 2135942974
%%humdrum-veritas-data 761821823
%%linebreak <none>
%%barnumbers 0
L: 1/4
M: C|
N: Derived from pl-wn--sd-xvi-qu-273--132_gomolka-mikolaj--pomni-panie-dawida-i-jego-trudnosci.krn
%%staves [1 2 3 4]
V: 1
V: 2 clef=alto
V: 3 clef=alto
V: 4 clef=bass
K: F
[V:1] G4G2B2 [|] 
[V:2] D4D2D2 [|] 
[V:3] G,4G,2G,2 [|] 
[V:4] G,,4G,,2G,4 [|] 
[V:1] A2A4G2 [|] 
[V:2] D2D2D3E [|] 
[V:3] A,2A,2B,4 [|] 
[V:4] ^F,2G,2G,2 [|] 
[V:1] A2D2F3E [|] 
[V:2] F2>E2D2CB, [|] 
[V:3] A,2F,2B,2A,G, [|] 
[V:4] D,2D,2B,,2C,2 [|] 
[V:1] D2C2D4 [|] 
[V:2] A,2G,2A,4 [|] 
[V:3] ^F,2G,4=F,2 [|] 
[V:4] D,2E,2D,4 [|] 
[V:1] D2G2G2B2 [|] 
[V:2] =B,2D2D3E [|] 
[V:3] G,2B,2B,2B,2 [|] 
[V:4] G,,2G,,2G,,2G,2 [|] 
[V:1] A2A2G4 [|] 
[V:2] F2F,2G,4 [|] 
[V:3] C2D4C2 [|] 
[V:4] =F,2D,2E,4 [|] 
[V:1] F2G4G2 [|] 
[V:2] A,B,C4D2 [|] 
[V:3] D2G,2>A,2B,2 [|] 
[V:4] D,2C,4G,,2 [|] 
[V:1] F2F2E4 [|] 
[V:2] D2D2C3B, [|] 
[V:3] F,2B,A,G,F,G,2 [|] 
[V:4] B,,2B,,2C,4 [|] 
[V:1] D32 |]  
[V:2] A,32 |]  
[V:3] F,32 |]  
[V:4] F,32 |]  


